svgs/duotone/arrow-down-a-z.svg

<svg xmlns="http://www.w3.org/2000/svg" viewBox="0 0 512 512"><!--! Font Awesome Pro 6.3.0 by @fontawesome - https://fontawesome.com License - https://fontawesome.com/license (Commercial License) Copyright 2023 Fonticons, Inc. --><defs><style>.fa-secondary{opacity:.4}</style></defs><path class="fa-primary" d="M151.6 470.1c-12.12 13.26-35.06 13.26-47.19 0l-87.1-96.09c-11.94-13.05-11.06-33.31 1.969-45.27c13.02-11.95 33.27-11.04 45.22 1.973L96 366.1V64.03c0-17.7 14.33-32.03 32-32.03S160 46.33 160 64.03v302l32.4-35.39c11.46-12.49 31.67-14.39 45.22-1.973c13.03 11.95 13.9 32.22 1.969 45.27L151.6 470.1z"/><path class="fa-secondary" d="M448 416h-50.75l73.38-73.38c9.156-9.156 11.89-22.91 6.938-34.88S460.9 288 447.1 288H319.1C302.3 288 288 302.3 288 320s14.33 32 32 32h50.75l-73.38 73.38c-9.156 9.156-11.89 22.91-6.938 34.88S307.1 480 319.1 480h127.1C465.7 480 480 465.7 480 448S465.7 416 448 416zM492.6 209.3l-79.99-160.1c-10.84-21.81-46.4-21.81-57.24 0L275.4 209.3c-7.906 15.91-1.5 35.24 14.31 43.19c15.87 7.922 35.04 1.477 42.93-14.4l7.154-14.39h88.43l7.154 14.39c6.174 12.43 23.97 23.87 42.93 14.4C494.1 244.6 500.5 225.2 492.6 209.3zM367.8 167.4L384 134.7l16.22 32.63H367.8z"/></svg>

<svg xmlns="http://www.w3.org/2000/svg" viewBox="0 0 512 512"><!-- Font Awesome Pro 6.0.0-alpha2 by @fontawesome - https://fontawesome.com License - https://fontawesome.com/license (Commercial License) --><defs><style>.fa-secondary{opacity:.4}</style></defs><path d="M448 416H397.25L470.625 342.625C479.782 333.469 482.516 319.719 477.563 307.75S460.938 288 448 288H320C302.329 288 288 302.312 288 320S302.329 352 320 352H370.75L297.375 425.375C288.219 434.531 285.485 448.281 290.438 460.25S307.063 480 320 480H448C465.672 480 480 465.688 480 448S465.672 416 448 416ZM492.614 209.312L412.621 48.359C401.78 26.547 366.221 26.547 355.379 48.359L275.387 209.312C267.481 225.219 273.887 244.551 289.698 252.504C305.571 260.426 324.741 253.98 332.631 238.105L339.786 223.711H428.215L435.37 238.105C441.543 250.531 459.344 261.977 478.303 252.504C494.114 244.551 500.52 225.219 492.614 209.312ZM367.784 167.375L384 134.746L400.217 167.375H367.784Z" class="fa-secondary"/><path d="M151.593 470.054C139.468 483.315 116.531 483.315 104.406 470.054L16.408 373.96C4.472 360.913 5.347 340.647 18.377 328.694C31.392 316.749 51.642 317.655 63.595 330.667L96 366.062V64.03C96 46.327 110.328 31.999 128 31.999S160 46.327 160 64.03V366.062L192.404 330.667C203.861 318.175 224.074 316.272 237.623 328.694C250.652 340.647 251.527 360.913 239.591 373.96L151.593 470.054Z" class="fa-primary"/></svg>
